!!!COM: Beethoven, Ludwig van
!!!CDT: 1770///-1827///
!!!ODT: 1801///
!!!OTL: String Quintet in C major, Op. 29
!!!OPS: Op. 29
!!!OMV: Mvmt. 3
!!!OMD: Scherzo: Allegro
!!!PDT: 1802///
!!!PPP: Leipzig
!!!ODE: Count Fries
**kern	**dynam	**kern	**dynam	**kern	**dynam	**kern	**dynam	**kern	**dynam
*staff5	*staff5	*staff4	*staff4	*staff3	*staff3	*staff2	*staff2	*staff1	*staff1
*Icello	*Icello	*Iviola	*Iviola	*Iviola	*Iviola	*Ivioln	*Ivioln	*Ivioln	*Ivioln
*clefF4	*clefF4	*clefC3	*clefC3	*clefC3	*clefC3	*clefG2	*clefG2	*clefG2	*clefG2
*k[]	*k[]	*k[]	*k[]	*k[]	*k[]	*k[]	*k[]	*k[]	*k[]
*M3/4	*M3/4	*M3/4	*M3/4	*M3/4	*M3/4	*M3/4	*M3/4	*M3/4	*M3/4
*MM320	*MM320	*MM320	*MM320	*MM320	*MM320	*MM320	*MM320	*MM320	*MM320
*>[A,A,B,B1,B,B2,C,D,D1,D,E,E,A,B,B2]	*>[A,A,B,B1,B,B2,C,D,D1,D,E,E,A,B,B2]	*>[A,A,B,B1,B,B2,C,D,D1,D,E,E,A,B,B2]	*>[A,A,B,B1,B,B2,C,D,D1,D,E,E,A,B,B2]	*>[A,A,B,B1,B,B2,C,D,D1,D,E,E,A,B,B2]	*>[A,A,B,B1,B,B2,C,D,D1,D,E,E,A,B,B2]	*>[A,A,B,B1,B,B2,C,D,D1,D,E,E,A,B,B2]	*>[A,A,B,B1,B,B2,C,D,D1,D,E,E,A,B,B2]	*>[A,A,B,B1,B,B2,C,D,D1,D,E,E,A,B,B2]	*>[A,A,B,B1,B,B2,C,D,D1,D,E,E,A,B,B2]
*>norep[A,B,B2,C,D,E,A,B,B2]	*>norep[A,B,B2,C,D,E,A,B,B2]	*>norep[A,B,B2,C,D,E,A,B,B2]	*>norep[A,B,B2,C,D,E,A,B,B2]	*>norep[A,B,B2,C,D,E,A,B,B2]	*>norep[A,B,B2,C,D,E,A,B,B2]	*>norep[A,B,B2,C,D,E,A,B,B2]	*>norep[A,B,B2,C,D,E,A,B,B2]	*>norep[A,B,B2,C,D,E,A,B,B2]	*>norep[A,B,B2,C,D,E,A,B,B2]
=1-	=1-	=1-	=1-	=1-	=1-	=1-	=1-	=1-	=1-
*>A	*>A	*>A	*>A	*>A	*>A	*>A	*>A	*>A	*>A
*	*	*^	*	*	*	*	*	*	*
[2.C/	p	[2.G/	[2.E\	p	2.r	.	(4c/	p	2.g/	p
.	.	.	.	.	.	.	4e/)	.	.	.
.	.	.	.	.	.	.	4G'/	.	.	.
=2	=2	=2	=2	=2	=2	=2	=2	=2	=2	=2
2.C/]	.	2.G/]	2.E\]	.	(4G/	p	2.r	.	(4cc\	.
.	.	.	.	.	4c/)	.	.	.	4ee\)	.
.	.	.	.	.	4e'\	.	.	.	4g'/	.
=3	=3	=3	=3	=3	=3	=3	=3	=3	=3	=3
[2.BB/	.	(2.G/	[2.F\	.	2.r	.	(4d/	.	2.g/	.
.	.	.	.	.	.	.	4f/)	.	.	.
.	.	.	.	.	.	.	4G'/	.	.	.
=4	=4	=4	=4	=4	=4	=4	=4	=4	=4	=4
2.BB/]	.	2.G/ 2.B/)	2.F\]	.	(4G/	.	2.r	.	(4dd\	.
.	.	.	.	.	4d\)	.	.	.	4ff\)	.
.	.	.	.	.	4f'\	.	.	.	4g'/	.
=5	=5	=5	=5	=5	=5	=5	=5	=5	=5	=5
(2C/	.	4G/	4E\	.	(2c/	.	(2e/	.	(4ee\	.
.	.	4r	4r	.	.	.	.	.	4gg\)	.
4BB/	.	4r	4r	.	4B/	.	4d/	.	4cc'\	.
*	*	*v	*v	*	*	*	*	*	*	*
=6	=6	=6	=6	=6	=6	=6	=6	=6	=6
2AA/	.	4r	.	2A/	.	2c/	.	(4aa\	.
.	.	4r	.	.	.	.	.	4ccc\)	.
4C/)	.	4e\	.	4e\)	.	4a/)	.	4ee'\	.
=7	=7	=7	=7	=7	=7	=7	=7	=7	=7
2D/	.	2A/	.	(2d\	.	(2.f#/	.	(4ff#\	.
.	.	.	.	.	.	.	.	4aa\)	.
4D/	.	4A/	.	4c\)	.	.	.	4dd'\	.
=8	=8	=8	=8	=8	=8	=8	=8	=8	=8
4GG/	p	4G/	p	4B/	p	4g/)	p	4gg\	p
4r	.	4r	.	4r	.	4r	.	4r	.
4r	.	4r	.	4r	.	4r	.	4r	.
=9:|!|:	=9:|!|:	=9:|!|:	=9:|!|:	=9:|!|:	=9:|!|:	=9:|!|:	=9:|!|:	=9:|!|:	=9:|!|:
*>B	*>B	*>B	*>B	*>B	*>B	*>B	*>B	*>B	*>B
2.r	.	(4G/	p	[2.g\	p	[2.b-/	p	(2.dd\	p
.	.	4B-/)	.	.	.	.	.	.	.
.	.	4D'/	.	.	.	.	.	.	.
=10	=10	=10	=10	=10	=10	=10	=10	=10	=10
(4GG/	p	2.r	.	2.g\_	.	2.b-/]	.	2.cc#\)	.
4BB-/)	.	.	.	.	.	.	.	.	.
4EE'/	.	.	.	.	.	.	.	.	.
=11	=11	=11	=11	=11	=11	=11	=11	=11	=11
.	.	.	.	.	.	.	.	(eeq/LLL	.
.	.	.	.	.	.	.	.	cc#q/	.
.	.	.	.	.	.	.	.	bq/JJJ	.
2.r	.	(4e\	.	2.g\]	.	[2.a/	.	4cc#'\)	.
.	.	4g\)	.	.	.	.	.	4dd'\	.
.	.	4A'/	.	.	.	.	.	4ee'\	.
=12	=12	=12	=12	=12	=12	=12	=12	=12	=12
(4FF/	.	2.r	.	2.f\	.	2.a/]	.	(4ee\	.
4AA/)	.	.	.	.	.	.	.	4ff\)	.
4DD'/	.	.	.	.	.	.	.	4dd\	.
=13	=13	=13	=13	=13	=13	=13	=13	=13	=13
2.r	.	(4F/	.	[2.f\	.	[2.a-/	.	(2.ccn\	.
.	.	4A-/)	.	.	.	.	.	.	.
.	.	4D'/	.	.	.	.	.	.	.
=14	=14	=14	=14	=14	=14	=14	=14	=14	=14
(4FF/	.	2.r	.	2.f\_	.	2.a-/]	.	2.b\)	.
4AA-/)	.	.	.	.	.	.	.	.	.
4DD'/	.	.	.	.	.	.	.	.	.
=15	=15	=15	=15	=15	=15	=15	=15	=15	=15
.	.	.	.	.	.	.	.	(ccq/LLL	.
.	.	.	.	.	.	.	.	bq/	.
.	.	.	.	.	.	.	.	aq/JJJ	.
2.r	.	(4d\	.	2.f\]	.	[2.g/	.	4b'\)	.
.	.	4f\)	.	.	.	.	.	4cc'\	.
.	.	4G'/	.	.	.	.	.	4dd'\	.
=16	=16	=16	=16	=16	=16	=16	=16	=16	=16
(4GG/	.	2.r	.	2.e\	.	2.g/]	.	(4dd\	.
4C/)	.	.	.	.	.	.	.	4ee\)	.
4CC'/	.	.	.	.	.	.	.	4cc\	.
=17	=17	=17	=17	=17	=17	=17	=17	=17	=17
(4C/	.	[2.C/ [2.c/	.	[2.e-\	.	(2.f#/	.	(2.ff#\	.
4E-/)	.	.	.	.	.	.	.	.	.
4AA-'/	.	.	.	.	.	.	.	.	.
=18	=18	=18	=18	=18	=18	=18	=18	=18	=18
(4C/	.	2.C/_ 2.c/_	.	2.e-\_	.	2.g/	.	2.gg\	.
4E-/)	.	.	.	.	.	.	.	.	.
4GG'/	.	.	.	.	.	.	.	.	.
=19	=19	=19	=19	=19	=19	=19	=19	=19	=19
(4C/	.	2.C/] (2.c/_	.	2.e-\_	.	2.a/	.	2.aa\	.
4E-/)	.	.	.	.	.	.	.	.	.
4FF#'/	.	.	.	.	.	.	.	.	.
=20	=20	=20	=20	=20	=20	=20	=20	=20	=20
(4C/	.	[2.C/ 2.c/_)	.	2.e-\_	.	2.g/	.	2.gg\	.
4E-/)	.	.	.	.	.	.	.	.	.
4GG'/	.	.	.	.	.	.	.	.	.
=21	=21	=21	=21	=21	=21	=21	=21	=21	=21
(4C/	.	2.C/_ 2.c/_	.	(2.e-\]	.	[2.f#/	.	[2.ff#\	.
4E-/)	.	.	.	.	.	.	.	.	.
4AA'/	.	.	.	.	.	.	.	.	.
=22	=22	=22	=22	=22	=22	=22	=22	=22	=22
(4C/	.	2.C/] 2.c/]	.	2.d\)	.	2.f#/]	.	2.ff#\]	.
4D/)	.	.	.	.	.	.	.	.	.
4AA-'/	.	.	.	.	.	.	.	.	.
=23	=23	=23	=23	=23	=23	=23	=23	=23	=23
(4BB/	.	(4B/	.	[2.G\ [2.g\	.	2.g/)	.	2.gg\)	.
4D/)	.	4d/)	.	.	.	.	.	.	.
4GG'/	.	4G'/	.	.	.	.	.	.	.
=24	=24	=24	=24	=24	=24	=24	=24	=24	=24
2.r	.	2.r	.	2.G\_ 2.g\_	.	(4b\	.	(4bb\	f
.	.	.	.	.	.	4dd\)	.	4ddd\)	.
.	.	.	.	.	.	4g'/	.	4gg'\	.
=25	=25	=25	=25	=25	=25	=25	=25	=25	=25
(4E-\	.	(4e-\	f	2.G\_ 2.g\_	.	2.r	.	2.r	.
4G\)	.	4g\)	.	.	.	.	.	.	.
4C'/	.	4c'\	.	.	.	.	.	.	.
=26	=26	=26	=26	=26	=26	=26	=26	=26	=26
2.r	.	2.r	.	2.G\_ 2.g\_	.	(4ee-\	.	(4eee-\	.
.	.	.	.	.	.	4gg\)	.	4ggg\)	.
.	.	.	.	.	.	4cc\	.	4ccc'\	.
=27	=27	=27	=27	=27	=27	=27	=27	=27	=27
(4BB/	.	(4B/	.	2.G\_ 2.g\_	.	2.r	.	2.r	.
4D/)	.	4d/)	.	.	.	.	.	.	.
4GG'/	.	4G'/	.	.	.	.	.	.	.
=28	=28	=28	=28	=28	=28	=28	=28	=28	=28
2.r	.	2.r	.	2.G\_ 2.g\_	.	4b\	.	(4bb\	f
.	.	.	.	.	.	4dd\	.	4ddd\)	.
.	.	.	.	.	.	4g'/	.	4gg'\	.
=29	=29	=29	=29	=29	=29	=29	=29	=29	=29
(4E-\	.	(4e-\	.	2.G\_ 2.g\_	.	2.r	.	2.r	.
4G\)	.	4g\)	.	.	.	.	.	.	.
4C'/	.	4c'\	.	.	.	.	.	.	.
=30	=30	=30	=30	=30	=30	=30	=30	=30	=30
2.r	.	2.r	.	2.G\] 2.g\]	.	(4ee-\	.	(4eee-\	f
.	.	.	.	.	.	4gg\)	.	4ggg\)	.
.	.	.	.	.	.	4cc'\	.	4ccc'\	.
=31	=31	=31	=31	=31	=31	=31	=31	=31	=31
[2.GG/	.	4B/	.	[2.G\ [2.g\	.	2.r	.	(4bb\	.
.	.	4r	.	.	.	.	.	4ddd\)	.
.	.	4r	.	.	.	.	.	4gg'\	.
=32	=32	=32	=32	=32	=32	=32	=32	=32	=32
2.GG/_	.	2.r	.	2.G\_ 2.g\_	.	(4B/	.	(4b\	.
.	.	.	.	.	.	4d/)	.	4dd\)	.
.	.	.	.	.	.	4G'/	.	4g'/	.
=33	=33	=33	=33	=33	=33	=33	=33	=33	=33
(4GG/]	.	2.r	.	4G\] 4g\]	.	2.r	.	(4B/	.
4BB/	.	.	.	(4B/	.	.	.	4d/)	.
4D/	.	.	.	4d\	.	.	.	4G'/	.
=34	=34	=34	=34	=34	=34	=34	=34	=34	=34
4G\	.	2.r	.	4g\	.	2.r	.	2.r	.
4F\	.	.	.	4f\	.	.	.	.	.
4D\)	.	.	.	4d\)	.	.	.	.	.
=35	=35	=35	=35	=35	=35	=35	=35	=35	=35
*	*	*^	*	*	*	*	*	*	*
[2.C/	p	[2.G/	[2.E\	.	(4c\	p	(4cc\	p	2.g/	p
.	.	.	.	.	4e\)	.	4ee\)	.	.	.
.	.	.	.	.	4G'/	.	4g'/	.	.	.
=36	=36	=36	=36	=36	=36	=36	=36	=36	=36	=36
2.C/]	.	2.G/]	2.E\]	.	2.r	.	2.r	.	(4cc\	.
.	.	.	.	.	.	.	.	.	4ee\)	.
.	.	.	.	.	.	.	.	.	4g'/	.
=37	=37	=37	=37	=37	=37	=37	=37	=37	=37	=37
[2.BB/	.	[2.G/	[2.F\	.	(4d\	.	(4dd\	.	2.g/	.
.	.	.	.	.	4f\)	.	4ff\)	.	.	.
.	.	.	.	.	4G'/	.	4g'/	.	.	.
=38	=38	=38	=38	=38	=38	=38	=38	=38	=38	=38
2.BB/]	.	2.G/]	2.F\]	.	2.r	.	2.r	.	(4dd\	.
.	.	.	.	.	.	.	.	.	4ff\)	.
.	.	.	.	.	.	.	.	.	4g'/	.
*	*	*v	*v	*	*	*	*	*	*	*
=39	=39	=39	=39	=39	=39	=39	=39	=39	=39
(2C/	.	(2c/	.	(2e\	.	(2ee\	.	(4ee\	.
.	.	.	.	.	.	.	.	4gg\)	.
4BB/	.	4B/	.	4d\	.	4dd\	.	4cc'\	.
=40	=40	=40	=40	=40	=40	=40	=40	=40	=40
2AA/	.	2A/	.	2c\	.	2cc\	.	(4aa\	.
.	.	.	.	.	.	.	.	4ccc\)	.
4C/)	.	4e\)	.	4a\)	.	4aa\)	.	4ee'\	.
=41	=41	=41	=41	=41	=41	=41	=41	=41	=41
2D/	.	(2d\	.	2.f#\	.	2.ff#\	.	(4ff#\	.
.	.	.	.	.	.	.	.	4aa\)	.
4D/	.	4c\)	.	.	.	.	.	4dd'\	.
=42	=42	=42	=42	=42	=42	=42	=42	=42	=42
4GG/	p	4B/	p	4g\	p	4gg\	p	4gg'\	p
4r	.	4r	.	4r	.	4g'/	.	4gg'\	.
4r	.	4r	.	4r	.	4g'/	.	4gg'\	.
=43	=43	=43	=43	=43	=43	=43	=43	=43	=43
(4C/	.	(4c\	.	2.r	.	2.g/	.	[2.gg\	.
4E/)	.	4e\)	.	.	.	.	.	.	.
4GG'/	.	4G'/	.	.	.	.	.	.	.
=44	=44	=44	=44	=44	=44	=44	=44	=44	=44
2.r	.	2.r	.	4c\	.	(4cc\	.	(4gg\]	.
.	.	.	.	4e\	.	4ee\)	.	4ccc\)	.
.	.	.	.	4G'/	.	4g'/	.	4eee'\	.
=45	=45	=45	=45	=45	=45	=45	=45	=45	=45
(4D\	.	(4d\	.	2.r	.	2.g/	.	[2.gg\	.
4F\)	.	4f\)	.	.	.	.	.	.	.
4GG'/	.	4G'/	.	.	.	.	.	.	.
=46	=46	=46	=46	=46	=46	=46	=46	=46	=46
2.r	.	2.r	.	(4d\	.	(4dd\	.	(4gg\]	.
.	.	.	.	4f\)	.	4ff\)	.	4ddd\)	.
.	.	.	.	4G'/	.	4g'/	.	4fff'\	.
=47	=47	=47	=47	=47	=47	=47	=47	=47	=47
4C/	.	(4E/	.	(4g\	.	(4cc\	.	(4gg\	.
4r	.	4G/)	.	4cc\)	.	4ee\)	.	4ccc\)	.
4r	.	4c'/	.	4e'\	.	4g'/	.	4eee'\	.
=48	=48	=48	=48	=48	=48	=48	=48	=48	=48
4AA/	.	(4E/	.	(4g\	.	(4cc#\	.	(4aa\	.
4r	.	4G/)	.	4cc#\)	.	4ee\)	.	4ccc#\)	.
4r	.	4c#'/	.	4e'\	.	4a/	.	4eee'\	.
=49	=49	=49	=49	=49	=49	=49	=49	=49	=49
4D\	.	(4F/	.	(4a\	.	(4dd\	.	(4aa\	.
4r	.	4A/)	.	4dd\)	.	4ff\)	.	4ddd\)	.
4r	.	4d/	.	4f'\	.	4a'/	.	4fff'\	.
=50	=50	=50	=50	=50	=50	=50	=50	=50	=50
4BB/	.	(4F#/	.	(4a\	.	(4dd#\	.	(4aa\	.
4r	.	4A/)	.	4dd#\)	.	4ff#\)	.	4ddd#\)	.
4r	.	4d#'\	.	4f#'\	.	4a/	.	4fff#'\	.
=51	=51	=51	=51	=51	=51	=51	=51	=51	=51
4E\	.	(4G/	.	(4b\	.	(4ee\	.	(4bb\	.
4r	.	4B/)	.	4ee\)	.	4gg\)	.	4eee\)	.
4r	.	4e'\	.	4g'\	.	4b'\	.	4ggg'\	.
=52	=52	=52	=52	=52	=52	=52	=52	=52	=52
4C/	.	(4G/	.	(4b-\	.	(4ee\	.	(4ccc\	.
4r	.	4B-/)	.	4ee\)	.	4gg\)	.	4eee\)	.
4r	.	4e'\	.	4g'\	.	4b-'\	.	4ggg'\	.
=53	=53	=53	=53	=53	=53	=53	=53	=53	=53
4F\	f	(4A/	f	(4cc\	f	(4ff\	f	(4ccc\	f
4r	.	4c/)	.	4ff\)	.	4aa\)	.	4fff\)	.
4r	.	4f'\	.	4a'\	.	4cc'\	.	4aaa'\	.
=54	=54	=54	=54	=54	=54	=54	=54	=54	=54
4D\	.	(4A/	.	(4dd\	.	(4ff\	.	(4ddd\	.
4r	.	4d\)	.	4ff\)	.	4aa\)	.	4fff\)	.
4r	.	4f'\	.	4a'\	.	4dd'\	.	4aaa'\	.
=55	=55	=55	=55	=55	=55	=55	=55	=55	=55
2BB/	.	(4G/	.	(4dd\	.	(4ff\	.	(4ddd\	.
.	.	4d\)	.	4ff\)	.	4gg\)	.	4fff\)	.
[4B\	.	[4f\	f	[4g\	f	[4dd\	.	[4ggg\	.
=56	=56	=56	=56	=56	=56	=56	=56	=56	=56
2.B;\]	.	2.f;\]	.	2.g;\]	.	2.dd\]	.	2.ggg;\]	.
=57	=57	=57	=57	=57	=57	=57	=57	=57	=57
(4FF#/	pp	2.r	.	[2.e-\	pp	[2.f#/	pp	[2.a/	pp
4AA/)	.	.	.	.	.	.	.	.	.
4CC'/	.	.	.	.	.	.	.	.	.
=58	=58	=58	=58	=58	=58	=58	=58	=58	=58
(4FF#/	.	2.r	.	2.e-\]	.	2.f#/]	.	2.a/]	.
4AA/)	.	.	.	.	.	.	.	.	.
4CC/	.	.	.	.	.	.	.	.	.
=59	=59	=59	=59	=59	=59	=59	=59	=59	=59
(4FF#/	.	[2.C/ [2.c/	.	[2.c\ [2.e-\	.	[2.f#/	.	[2.A/ [2.a/	.
4AA/)	.	.	.	.	.	.	.	.	.
4CC'/	.	.	.	.	.	.	.	.	.
=60	=60	=60	=60	=60	=60	=60	=60	=60	=60
(4FF#/	.	2.C/] 2.c/]	.	2.c\] 2.e-\]	.	2.f#/]	.	2.A/] 2.a/]	.
4AA/)	.	.	.	.	.	.	.	.	.
4CC'/	.	.	.	.	.	.	.	.	.
=61	=61	=61	=61	=61	=61	=61	=61	=61	=61
4BB/	p	4G/	p	4B/	p	4d/	p	4G/ 4g/	.
4r	.	4r	.	4r	.	4r	.	4r	.
4C/	.	4c/	.	4G/	.	4c/	.	4e/	.
=62	=62	=62	=62	=62	=62	=62	=62	=62	=62
4FFn/	.	4F/	.	4A/	.	4d/	.	4f/	.
4r	.	4r	.	4r	.	4r	.	4r	.
4GG/	.	4G/	.	4G/	.	4B/	.	4d/	.
=63	=63	=63	=63	=63	=63	=63	=63	=63	=63
(4FF#/	pp	(4F#/	pp	[2.e-\	pp	[2.f#/ [2.a/	pp	[2.aa\	pp
4AA/)	.	4A/)	.	.	.	.	.	.	.
4CC'/	.	4C'/	.	.	.	.	.	.	.
=64	=64	=64	=64	=64	=64	=64	=64	=64	=64
(4FF#/	.	(4F#/	.	2.e-\]	.	2.f#/] 2.a/]	.	2.aa\]	.
4AA/)	.	4A/)	.	.	.	.	.	.	.
4CC'/	.	4C'/	.	.	.	.	.	.	.
=65	=65	=65	=65	=65	=65	=65	=65	=65	=65
(4FF#/	.	(4F#/	.	[2.A\ [2.a\	.	[2.e-/ [2.ee-/	.	[2.fff#\	f
4AA/)	.	4A/)	.	.	.	.	.	.	.
4CC'/	.	4C'/	.	.	.	.	.	.	.
=66	=66	=66	=66	=66	=66	=66	=66	=66	=66
(4FF#/	.	(4F#/	.	2.A\] 2.a\]	.	2.e-/] 2.ee-/]	.	2.fff#\]	.
4AA/)	.	4A/)	.	.	.	.	.	.	.
4CC'/	.	4C'/	.	.	.	.	.	.	.
=67	=67	=67	=67	=67	=67	=67	=67	=67	=67
4BB/	p	4B/	p	4B/	p	4d/ 4dd/	p	4ggg\	p
4r	.	4r	.	4r	.	4r	.	4r	.
4C/	.	4c/	.	4g\	.	4een\	.	4eee\	.
=68	=68	=68	=68	=68	=68	=68	=68	=68	=68
4FFn/	.	4Fn/	.	4a\	.	4ff\	.	4fffn\	.
4r	.	4r	.	4r	.	4r	.	4r	.
4GG/	.	4f\	.	4b\	.	4dd\	.	4ddd\	.
=69	=69	=69	=69	=69	=69	=69	=69	=69	=69
4C/	f	(4E/	f	4G/	f	(4cc\	f	4ccc\	f
4r	.	4G/)	.	4c/	.	4ee\)	.	4r	.
4r	.	4c'/	.	4e'\	.	4g'/	.	4r	.
=70	=70	=70	=70	=70	=70	=70	=70	=70	=70
4AA/	f	(4E/	f	(4G/	f	(4cc#\	f	4e\ 4cc#\ 4aa\	.
4r	.	4G/)	.	4c#/)	.	4ee\)	.	4r	.
4r	.	4c#'/	.	4e'\	.	4a/	.	4r	.
=71	=71	=71	=71	=71	=71	=71	=71	=71	=71
4D/	f	(4F/	f	(4A/	f	(4dd\	f	4f\ 4dd\ 4aa\	f
4r	.	4A/)	.	4d\)	.	4ff\)	.	4r	.
4r	.	4d\	.	4f'\	.	4a/	.	4r	.
=72	=72	=72	=72	=72	=72	=72	=72	=72	=72
4C/	f	(4G/	f	(4B-\	.	(4ee\	f	4g\ 4ee\ 4ccc\	f
4r	.	4B-/)	.	4e\)	.	4gg\)	.	4r	.
4r	.	4e'\	.	4g'\	.	4ccn'\	.	4r	.
=73	=73	=73	=73	=73	=73	=73	=73	=73	=73
4F\	f	(4A/	.	(4c\	f	(4ff\	f	4a\ 4ff\ 4ccc\	f
4r	.	4c/)	.	4f\)	.	4aa\)	.	4r	.
4r	.	4f'\	.	4a'\	.	4cc\	.	4r	.
=74	=74	=74	=74	=74	=74	=74	=74	=74	=74
4E\	f	(4Bn\	f	(4e\	f	(4gg#\	f	4ee\ 4eee\	f
4r	.	4e\)	.	4g#\)	.	4bb\)	.	4r	.
4r	.	4g#'\	.	4b'\	.	4ee'\	.	4r	.
=75	=75	=75	=75	=75	=75	=75	=75	=75	=75
4A\	.	(4c/	.	(4e\	.	(4aa\	.	4ee'\ 4eee'\	.
4r	.	4A/)	.	4a\)	.	4ccc\)	.	4r	.
4F'\	.	4f'\	.	4f'\	.	4ff'\	.	4fff'\	.
=76	=76	=76	=76	=76	=76	=76	=76	=76	=76
4D'\	.	4d'\	.	4d\	.	4dd'\	.	4ddd'\	.
4G'\	.	4gn'\	.	4gn'\	.	4ggn'\	.	4ggg'\	.
4GG'/	.	4G'/	.	4G'/	.	4g'/	.	4gg'\	.
=77	=77	=77	=77	=77	=77	=77	=77	=77	=77
[2.CC/ (2.C/	.	[2.C/ (2.c/	.	(4c\	.	(4cc\	.	4ccc\	.
.	.	.	.	4e\)	.	4ee\)	.	4r	.
.	.	.	.	4G'/	.	4g'/	.	4r	.
=78	=78	=78	=78	=78	=78	=78	=78	=78	=78
2.CC/] 2.BB/)	.	2.C/] 2.B/)	.	2.r	.	2.r	.	(4ddd\	.
.	.	.	.	.	.	.	.	4fff\)	.
.	.	.	.	.	.	.	.	4gg'\	.
=79	=79	=79	=79	=79	=79	=79	=79	=79	=79
[2.CC/ (2.C/	.	[2.C/ (2.c/	.	4c\	.	(4cc\	.	2.r	.
.	.	.	.	4e\	.	4ee\)	.	.	.
.	.	.	.	4G'/	.	4g'/	.	.	.
=80	=80	=80	=80	=80	=80	=80	=80	=80	=80
2.CC/] 2.GG/)	.	2.C/] 2.G/)	.	2.r	.	2.r	.	(4bb\	.
.	.	.	.	.	.	.	.	4ddd\)	.
.	.	.	.	.	.	.	.	4gg'\	.
=81	=81	=81	=81	=81	=81	=81	=81	=81	=81
[2.CC/ (2.C/	.	[2.C/ (2.c/	.	(4c\	.	(4cc\	.	2.r	.
.	.	.	.	4e\)	.	4ee\)	.	.	.
.	.	.	.	4G'/	.	4g'/	.	.	.
=82	=82	=82	=82	=82	=82	=82	=82	=82	=82
2.CC/] 2.BB/)	.	2.C/] 2.B/)	.	2.r	.	2.r	.	(4ddd\	.
.	.	.	.	.	.	.	.	4fff\)	.
.	.	.	.	.	.	.	.	4gg'\	.
=83	=83	=83	=83	=83	=83	=83	=83	=83	=83
[2.CC/ (2.C/	.	[2.C/ (2.c/	.	4c\	.	(4cc\	.	2.r	.
.	.	.	.	4e\	.	4ee\)	.	.	.
.	.	.	.	4G'/	.	4g'/	.	.	.
=84	=84	=84	=84	=84	=84	=84	=84	=84	=84
2.CC/] 2.GG/)	.	2.C/] 2.G/)	.	2.r	.	2.r	.	(4bb\	.
.	.	.	.	.	.	.	.	4ddd\)	.
.	.	.	.	.	.	.	.	4gg'\	.
=85	=85	=85	=85	=85	=85	=85	=85	=85	=85
4CC/ 4C/	.	4C/ 4c/	.	2.r	.	2.r	.	(4ccc\	.
4r	.	4r	.	.	.	.	.	4eee\)	.
4r	.	4r	.	.	.	.	.	4gg'\	.
=86	=86	=86	=86	=86	=86	=86	=86	=86	=86
2.r	.	2.r	.	2.r	.	(4c/	.	(4cc\	.
.	.	.	.	.	.	4e/)	.	4ee\)	.
.	.	.	.	.	.	4G'/	.	4g'/	.
=87	=87	=87	=87	=87	=87	=87	=87	=87	=87
(4C/	.	(4c\	.	(4c\	.	(4c/	.	(4c/	.
4E/)	.	4e\)	.	4e\)	.	4e/)	.	4e/)	.
4GG'/	.	4G'/	.	4G'/	.	4G'/	.	4G'/	.
=88	=88	=88	=88	=88	=88	=88	=88	=88	=88
*>B1	*>B1	*>B1	*>B1	*>B1	*>B1	*>B1	*>B1	*>B1	*>B1
4C'/	.	4c'\	.	4c'\	.	4c'/	.	4c'/	.
4r	.	4r	.	4r	.	4r	.	4r	.
4r	.	4r	.	4r	.	4r	.	4r	.
=89:|!	=89:|!	=89:|!	=89:|!	=89:|!	=89:|!	=89:|!	=89:|!	=89:|!	=89:|!
*>B2	*>B2	*>B2	*>B2	*>B2	*>B2	*>B2	*>B2	*>B2	*>B2
4C'/	.	4c\	.	4c'\	.	4c'/	.	4c'/	.
4r	.	4r	.	4r	.	4r	.	4r	.
=	=	=	=	=	=	=	=	=	=
*>C	*>C	*>C	*>C	*>C	*>C	*>C	*>C	*>C	*>C
*k[b-]	*k[b-]	*k[b-]	*k[b-]	*k[b-]	*k[b-]	*k[b-]	*k[b-]	*k[b-]	*k[b-]
*M3/4	*M3/4	*M3/4	*M3/4	*M3/4	*M3/4	*M3/4	*M3/4	*M3/4	*M3/4
4r	.	4r	.	(4c\	p	4r	.	4r	.
=90	=90	=90	=90	=90	=90	=90	=90	=90	=90
4FF/	p	4r	.	4A/	.	2.r	.	2.r	.
4r	.	4r	.	4c/	.	.	.	.	.
4r	.	(4F'/	p	4f\	.	.	.	.	.
=91	=91	=91	=91	=91	=91	=91	=91	=91	=91
2.r	.	4C/	.	2a\	.	4r	.	2.r	.
.	.	4F/	.	.	.	4r	.	.	.
.	.	4A/	.	4cc\)	.	(4c/	p	.	.
=92!|:	=92!|:	=92!|:	=92!|:	=92!|:	=92!|:	=92!|:	=92!|:	=92!|:	=92!|:
*>D	*>D	*>D	*>D	*>D	*>D	*>D	*>D	*>D	*>D
(4FF/	p	4c\	.	[2.ff\	.	4A/	.	2.r	.
4AA/	.	4f\	.	.	.	4c/	.	.	.
4C/	.	4a\	.	.	.	4f/	.	.	.
=93	=93	=93	=93	=93	=93	=93	=93	=93	=93
4F\	.	4cc\	.	(4ff\]	.	4a/	.	2.r	.
4A\	.	4a\	.	4cc\	p	4cc\	.	.	.
4c\)	.	4f\)	.	4a\)	.	4ff\)	.	.	.
=94	=94	=94	=94	=94	=94	=94	=94	=94	=94
4E\	.	4c\	.	(4cc\	.	4g/	.	2.r	.
4r	.	4r	.	4b-\)	.	4r	.	.	.
4r	.	4r	.	4g'\	.	4r	.	.	.
=95	=95	=95	=95	=95	=95	=95	=95	=95	=95
4F\	.	4c/	.	(4b-\	.	4f/	.	2.r	.
4r	.	4r	.	4a\)	.	4r	.	.	.
4r	.	4r	.	4f'\	.	4r	.	.	.
=96	=96	=96	=96	=96	=96	=96	=96	=96	=96
4C/	.	4c/	.	(4a\	.	4e/	.	2.r	.
4r	.	4r	.	4g\)	.	4r	.	.	.
4r	.	4r	.	4e'\	.	4r	.	.	.
=97	=97	=97	=97	=97	=97	=97	=97	=97	=97
2.r	.	2.r	.	(4c/	.	4r	.	4r	.
.	.	.	.	4Bn/	.	4r	.	4r	.
.	.	.	.	4B-/)	.	(4c/	p	(4cc\	p
=98	=98	=98	=98	=98	=98	=98	=98	=98	=98
4FF/	.	2.r	.	4A/	.	4A/	.	4a\	.
4r	.	.	.	4r	.	4c/	.	4cc\	.
4r	.	.	.	(4c/	.	4f/	.	4ff\	.
=99	=99	=99	=99	=99	=99	=99	=99	=99	=99
4r	.	4r	.	4A/	.	2a/)	.	2aa\	.
4r	.	4r	.	4c\	.	.	.	.	.
(4FF/	.	(4A/	.	4f\	.	4cc\	.	4ccc\)	.
=100	=100	=100	=100	=100	=100	=100	=100	=100	=100
4DD/	.	4F/	.	4a\	.	([2.ff\	.	([2.fff\	.
4FF/	.	4A/	.	4dd\	.	.	.	.	.
4AA/	.	4d\	.	4ff\	.	.	.	.	.
=101	=101	=101	=101	=101	=101	=101	=101	=101	=101
4D\	>	4f\	>	4aa\	>	4ff\]	>	4fff\]	>
4E\	.	4g\	.	4gg\	.	4ee\	.	4eee\	.
4F\)	.	4a\)	.	4ff\)	.	4dd\)	.	4ddd\)	.
=102	=102	=102	=102	=102	=102	=102	=102	=102	=102
4G\	p	4g\	p	4ee\	p	4cc\	p	4ccc'\	p
4r	.	4r	.	4r	.	4r	.	4bbn'\	.
4r	.	4r	.	4r	.	4r	.	4aa'\	.
=103	=103	=103	=103	=103	=103	=103	=103	=103	=103
4GG/	.	4G/	.	4Bn/	.	4G/ 4d/	.	4gg'\	.
4r	.	4r	.	4r	.	4r	.	4ff#'\	.
4r	.	4r	.	4r	.	4r	.	4ffn'\	.
=104	=104	=104	=104	=104	=104	=104	=104	=104	=104
4C/	.	4c\	.	4c\	.	4G/ 4e/	.	4ee'\	.
4r	.	4r	.	4r	.	4r	.	4dd'\	.
4r	.	4r	.	4r	.	4r	.	4cc#'\	.
=105	=105	=105	=105	=105	=105	=105	=105	=105	=105
2.r	.	2.r	.	4r	.	2.r	.	4ccn'\	.
.	.	.	.	4r	.	.	.	4bn'\	.
.	.	.	.	(4c\	p	.	.	4b-'\	.
=106	=106	=106	=106	=106	=106	=106	=106	=106	=106
*>D1	*>D1	*>D1	*>D1	*>D1	*>D1	*>D1	*>D1	*>D1	*>D1
4FF/	p	4r	.	4A/	.	2.r	.	4a'/	.
4r	.	4r	.	4c/	.	.	.	4r	.
4r	.	4F/	p	4f\	.	.	.	4r	.
=107	=107	=107	=107	=107	=107	=107	=107	=107	=107
2.r	.	4C/	.	2a\	.	4r	.	2.r	.
.	.	4F/	.	.	.	4r	.	.	.
.	.	4A/	.	4cc\)	.	4c/	p	.	.
=108:|!|:	=108:|!|:	=108:|!|:	=108:|!|:	=108:|!|:	=108:|!|:	=108:|!|:	=108:|!|:	=108:|!|:	=108:|!|:
*>E	*>E	*>E	*>E	*>E	*>E	*>E	*>E	*>E	*>E
([2.AA-/	p	[2.C/ [2.A-/	p	([2.A-/	p	(4A-/	.	(4a-/	p
.	.	.	.	.	.	4c/	.	4cc\	.
.	.	.	.	.	.	4e-/	.	4ee-\	.
=109	=109	=109	=109	=109	=109	=109	=109	=109	=109
2AA-/]	.	2.C/_ 2.A-/_	.	2A-/]	.	2a-/	.	2aa-\	.
4C/)	.	.	.	4c/)	.	4cc\)	.	4ccc\)	.
=110	=110	=110	=110	=110	=110	=110	=110	=110	=110
[2.E-\	.	2.C/_ 2.A-/_	.	[2.e-\	.	[2.ee-\	.	[2.eee-\	.
=111	=111	=111	=111	=111	=111	=111	=111	=111	=111
(4E-\]	.	2.C/] 2.A-/]	.	(4e-\]	.	(4ee-\]	.	(4eee-\]	.
4C/	.	.	.	4c\	.	4cc\	.	4ccc\	.
4AA-/)	.	.	.	4A-/)	.	4a-/)	.	4aa-\)	.
=112	=112	=112	=112	=112	=112	=112	=112	=112	=112
([2.GG-/	.	[2.C/ [2.A-/	.	([2.G-/	.	4r	.	(4g-/	.
.	.	.	.	.	.	(4c/	.	4cc\	.
.	.	.	.	.	.	4e-/	.	4ee-\	.
=113	=113	=113	=113	=113	=113	=113	=113	=113	=113
2GG-/]	.	2.C/_ 2.A-/_	.	2G-/]	.	2g-/	.	2gg-\	.
4C/)	.	.	.	4c/)	.	4cc\)	.	4ccc\)	.
=114	=114	=114	=114	=114	=114	=114	=114	=114	=114
[2.E-\	.	2.C/_ 2.A-/_	.	[2.e-\	.	[2.ee-\	.	[2.eee-\	.
=115	=115	=115	=115	=115	=115	=115	=115	=115	=115
4E-\]	.	2.C/] 2.A-/]	.	(4e-\]	.	(4ee-\]	.	(4eee-\]	.
4C/	.	.	.	4c\	.	4cc\	.	4ccc\	.
4GG-/	.	.	.	4G-/)	.	4g-/)	.	4gg-\)	.
=116	=116	=116	=116	=116	=116	=116	=116	=116	=116
[2.E-\	.	[2.C/ [2.An/	.	[2.e-\	.	[2.ee-\	.	[2.eee-\	.
=117	=117	=117	=117	=117	=117	=117	=117	=117	=117
(4E-\]	.	2.C/] 2.An/]	.	(4e-\]	.	(4ee-\]	.	(4eee-\]	.
4C/	.	.	.	4c\	.	4cc\	.	4ccc\	.
4FF/)	.	.	.	4F/)	.	4f/)	.	4ff\)	.
=118	=118	=118	=118	=118	=118	=118	=118	=118	=118
[2.D-\	.	[2.D-/ [2.B-/	.	[2.d-\	.	[2.dd-\	.	[2.ddd-\	.
=119	=119	=119	=119	=119	=119	=119	=119	=119	=119
(4D-/]	.	2.D-/_ 2.B-/_	.	(4d-\]	.	(4dd-\]	.	(4ddd-\]	.
4BB-/	.	.	.	4B-/	.	4b-\	.	4bb-\	.
4FF/)	.	.	.	4F/)	.	4f/)	.	4ff\)	.
=120	=120	=120	=120	=120	=120	=120	=120	=120	=120
(4D-^/	.	2D-/] 2B-/]	.	(4d-^\	.	(4dd-^\	.	(4ddd-^\	.
4BB-/	.	.	.	4B-/	.	4b-\	.	4bb-\	.
4EE/)	.	[4D-^/ [4B-^/	.	4E/)	.	4e/)	.	4ee\)	.
=121	=121	=121	=121	=121	=121	=121	=121	=121	=121
(4D-^/	.	2D-/] 2B-/]	.	(4d-^\	.	(4dd-^\	.	(4ddd-^\	.
4BB-/	.	.	.	4B-/	.	4b-\	.	4bb-\	.
4FF/)	.	[4D-^/ [4B-^/	.	4F/)	.	4f/)	.	4ff\)	.
=122	=122	=122	=122	=122	=122	=122	=122	=122	=122
(4D-^/	.	2D-/] 2B-/]	.	(4d-^\	.	(4dd-^\	.	(4ddd-^\	.
4BB-/	.	.	.	4B-/)	.	4b-\	.	4bb-\	.
4GG-/)	.	[4D-^/ [4B-^/	.	4G-/	.	4g-/)	.	4gg-\)	.
=123	=123	=123	=123	=123	=123	=123	=123	=123	=123
(4D-^/	.	2D-/] 2B-/]	.	(4d-^\	.	(4dd-^\	.	(4ddd-^\	.
4BB-/	.	.	.	4B-/)	.	4b-\	.	4bb-\	.
4FF/)	.	[4D-^/ [4B-^/	.	4F/	.	4f/)	.	4ff\)	.
=124	=124	=124	=124	=124	=124	=124	=124	=124	=124
(4D-^/	.	2D-/] 2B-/]	.	(4d-^\	.	4dd-^\	.	(4ddd-^\	.
4BB-/	.	.	.	4B-/	.	4b-\	.	4bb-\	.
4EE/)	.	[4D-^/ [4B-^/	.	4E/)	.	4e/	.	4ee\)	.
=125	=125	=125	=125	=125	=125	=125	=125	=125	=125
(4D-/	.	2D-/] 2B-/]	.	(4d-^\	.	(4dd-^\	.	4ddd-^\	.
4BB-/	.	.	.	4B-/	.	4b-\	.	4bb-\	.
4FF/)	.	[4D-/ [4B-/	.	4F/)	.	4f/)	.	4ff\	.
=126	=126	=126	=126	=126	=126	=126	=126	=126	=126
(4D-/	.	2D-/] 2B-/]	.	(4d-^\	.	(4dd-^\	.	(4ddd-^\	.
4BB-/	.	.	.	4B-/	.	4b-\	.	4bb-\	.
4GG-/)	.	[4D-/ [4B-/	.	4G-/)	.	4g-/)	.	4gg-\)	.
=127	=127	=127	=127	=127	=127	=127	=127	=127	=127
(4D-^/	.	2D-/] 2B-/]	.	(4d-^\	.	(4dd-^\	.	(4ddd-^\	.
4BB-/	.	.	.	4B-/	.	4b-\	.	4bb-\	.
4FF/)	.	[4D-/ [4B-/	.	4F/)	.	4f/)	.	4ff\)	.
=128	=128	=128	=128	=128	=128	=128	=128	=128	=128
(4D-/	.	2D-/] 2B-/]	.	(4d-^\	.	(4dd-^\	.	(4ddd-^\	.
4BB-/	.	.	.	4B-/	.	4b-\	.	4bb-\	.
4EE/)	.	[4D-^/ [4B-^/	.	4E/)	.	4e/)	.	4ee\)	.
=129	=129	=129	=129	=129	=129	=129	=129	=129	=129
(4BB-/	.	2D-/] 2B-/]	.	(4B-/	.	(4b-/	.	(4bb-\	.
4GGn/	.	.	.	4Gn/	.	4gn/	.	4ggn\	.
4EE/)	.	[4D-/ [4B-/	.	4E/)	.	4e/)	.	4ee\)	.
=130	=130	=130	=130	=130	=130	=130	=130	=130	=130
(4GG/	.	2D-/] 2B-/]	.	(4G/	.	(4g/	.	(4gg\	.
4EE/	.	.	.	4E/	.	4e/	.	4ee\	.
4DD-/)	.	(4D-/ [4B-/	.	(4D-/)	.	4d-/)	.	4dd-\)	.
=131	=131	=131	=131	=131	=131	=131	=131	=131	=131
(4GG/	.	2C/) 2B-/]	.	4G/	.	4g/	.	(4gg\	.
4EE/	.	.	.	4E/	.	4e/	.	4ee\	.
4CC/)	.	(4C/ [4B-/	.	4C/)	.	4c/	.	4cc\)	.
=132	=132	=132	=132	=132	=132	=132	=132	=132	=132
(4GG/	.	2D-/) 2B-/]	.	(4G/	.	(4g/	.	(4gg\	.
4EE/	.	.	.	4E/	.	4e/	.	4ee\	.
4DD-/)	.	(4D-/ [4B-/	.	(4D-/)	.	4d-/)	.	4dd-\)	.
=133	=133	=133	=133	=133	=133	=133	=133	=133	=133
(4GG/	.	&(2C/&)) 2B-/]	.	4G/	.	(4g/	.	(4gg\	.
4EE/	.	.	.	4E/	.	4e/	.	4ee\	.
4CC/)	.	(4C/ [4B-/	.	4C/)	.	4c/)	.	4cc\)	.
=134	=134	=134	=134	=134	=134	=134	=134	=134	=134
(4GG/	.	2D-/) 2B-/]	.	(4G/	.	(4g/	.	(4gg\	.
4EE/	.	.	.	4E/	.	4e/	.	4ee\	.
4DD-/)	.	(4D-/ [4B-/	.	4D-/)	.	4d-/)	.	4dd-\)	.
=135	=135	=135	=135	=135	=135	=135	=135	=135	=135
4CC/	p	4C/) 4B-/]	p	4C/	p	4c'/	.	4cc'\	p
4r	.	4C'/	.	4c'/	.	4c'/	.	4cc'\	.
4r	.	4C'/	.	4c'/	.	4c'/	.	4cc'\	.
=136	=136	=136	=136	=136	=136	=136	=136	=136	=136
2.r	.	4C'/	.	4c'/	.	4c'/	.	4cc'\	.
.	.	4C'/	.	4c'/	.	4c'/	.	4cc'\	.
.	.	4C'/	.	4c'/	.	4c'/	.	4cc'\	.
=137	=137	=137	=137	=137	=137	=137	=137	=137	=137
4r	.	4C/	.	4c\	.	4c/	.	4cc\	.
4r	.	4C/	.	4c\	.	4c/	.	4cc\	.
4C/	p	4C/	.	4c\	.	4c/	.	4cc\	.
=138	=138	=138	=138	=138	=138	=138	=138	=138	=138
(4AA/	.	4C/	.	4c\	.	4c/	.	4cc\	.
4C/	.	4C/	.	4c\	.	4c/	.	4cc\	.
4F\	.	4C/	.	4c\	.	4c/	.	4cc\	.
=139	=139	=139	=139	=139	=139	=139	=139	=139	=139
2A\	.	4C/	.	4c\	.	4cc\	.	4cc\	.
.	.	4C/	.	4c\	.	4cc\	.	4cc\	.
4c\)	.	4C/	.	4c\	.	4cc\	.	4cc\	.
=140	=140	=140	=140	=140	=140	=140	=140	=140	=140
[2.f\	.	4C/	.	4c\	.	4cc\	.	(4a\	.
.	.	4C/	.	4c\	.	4cc\	.	4cc\	.
.	.	4C/	.	4c\	.	4cc\	.	4ff\	.
=141	=141	=141	=141	=141	=141	=141	=141	=141	=141
(4f\]	.	4C/	.	4c\	.	4cc\	.	4aa\	.
4c\	.	4C/	.	4c\	.	4cc\	.	4ccc\	.
4A\)	.	4C/	.	4c\	.	4cc\	.	4fff\)	.
=142	=142	=142	=142	=142	=142	=142	=142	=142	=142
(4c\	.	4C/	.	4c\	.	4cc\	.	4r	.
4B-\)	.	4C/	.	4c\	.	4cc\	.	(4ccc\	.
4G'\	.	4C/	.	4c\	.	4cc\	.	4eee\)	.
=143	=143	=143	=143	=143	=143	=143	=143	=143	=143
(4B-\	.	4C/	.	4c\	.	4cc\	.	4r	.
4A\)	.	4C/	.	4c\	.	4cc\	.	(4ccc\	.
4F'\	.	4C/	.	4c\	.	4cc\	.	4fff\)	.
=144	=144	=144	=144	=144	=144	=144	=144	=144	=144
(4A\	.	4C/	.	4c\	.	4cc\	.	4r	.
4G\)	.	4BB-/	.	4c\	.	4cc\	.	(4ccc\	.
4E'\	.	4C/	.	4c\	.	4cc\	.	4ggg\)	.
=145	=145	=145	=145	=145	=145	=145	=145	=145	=145
(4C/	.	4C/	.	4c\	.	(4cc\	.	(4ccc\	.
4D\	.	4C/	.	4c\	.	4bn\	.	4bbn\	.
4E\	.	4C/	.	4c\	.	4b-\	.	4bb-\)	.
=146	=146	=146	=146	=146	=146	=146	=146	=146	=146
4F\)	.	4C/	.	4c\	.	4a/)	.	(4aa\	.
4r	.	4r	.	4r	.	4r	.	4ccc\	.
4r	.	4r	.	4r	.	4r	.	4fff\)	.
=147	=147	=147	=147	=147	=147	=147	=147	=147	=147
(4FF/	p	2.r	.	2.r	.	(4A/	.	[2.aaa\	.
4AA/	.	.	.	.	.	4c/	.	.	.
4C/	.	.	.	.	.	4f/	.	.	.
=148	=148	=148	=148	=148	=148	=148	=148	=148	=148
4F\	.	4F/	.	4A/	.	4a\	.	2.aaa\_	.
4A\	.	(4A/	.	(4c\	.	4cc\	.	.	.
4c\	.	4c/	.	4f\	.	4ff\	.	.	.
=149	=149	=149	=149	=149	=149	=149	=149	=149	=149
4f\	.	4f\	.	4a\	.	4aa\	.	4aaa\]	.
4c#\	.	4b-\	.	4ee\	.	4gg\	.	(4ggg\	.
4d\	.	4a\	.	4dd\	.	4ff\	.	4fff\	.
=150	=150	=150	=150	=150	=150	=150	=150	=150	=150
4A\	.	4f#\	.	4cc\	.	4ee-\	.	4eee-\	.
4B-\	.	4g\	.	4b-\	.	4dd\	.	4ddd\	.
4F#\	.	4e-\	.	4a\	.	4cc\	.	4ccc\	.
=151	=151	=151	=151	=151	=151	=151	=151	=151	=151
4G\	.	4d\	.	4g\)	.	4b-\	.	4bb-\	.
4c\)	.	4c\)	.	4f\	.	4a/)	.	4aa\)	.
4C'/	.	4B-'/	.	4e'\	.	4g'/	.	4gg'\	.
=152	=152	=152	=152	=152	=152	=152	=152	=152	=152
4r	.	4A'/	p	4c'\	p	4f'/	p	4aa'\	p
4FF'/	p	4f'\	.	4a'\	.	4cc'\	.	4aa'\	.
4FF'/	.	4f'\	.	4a'\	.	4cc'\	.	4r	.
=153	=153	=153	=153	=153	=153	=153	=153	=153	=153
4r	.	4r	.	4r	.	4r	.	4ddd'\	.
4BBn'/	.	4f'\	.	4g'\	.	4dd'\	.	4ddd'\	.
4BB'/	.	4f'\	.	4g'\	.	4dd'\	.	4r	.
=154	=154	=154	=154	=154	=154	=154	=154	=154	=154
4r	.	4r	.	4r	.	4r	.	4ccc'\	.
4C'/	.	4f'\	.	4a'\	.	4cc'\	.	4ccc'\	.
4C'/	.	4f'\	.	4a'\	.	4cc'\	.	4r	.
=155	=155	=155	=155	=155	=155	=155	=155	=155	=155
4r	.	4r	.	4r	.	4r	.	4eee'\	.
4BB-'/	.	4B-'/	.	4g'\	.	4cc'\	.	4eee'\	.
4BB-'/	.	4B-'/	.	4g'\	.	4cc'\	.	4r	.
=156	=156	=156	=156	=156	=156	=156	=156	=156	=156
4r	.	4r	.	4r	.	4r	.	4fff'\	.
4AA'/	.	4A'/	.	4f'\	.	4cc'\	.	4fff'\	.
4AA/	.	4A'/	.	4f'\	.	4cc'\	.	4r	.
=157	=157	=157	=157	=157	=157	=157	=157	=157	=157
4r	.	4r	.	4r	.	4r	.	4ddd'\	.
4BBn'/	.	4f'\	.	4g'\	.	4dd'\	.	4ddd'\	.
4BB'/	.	4f'\	.	4g'\	.	4dd'\	.	4r	.
=158	=158	=158	=158	=158	=158	=158	=158	=158	=158
4r	.	4r	.	4r	.	4r	.	4ccc'\	.
4C'/	.	4f'\	.	4a'\	.	4cc'\	.	4ccc'\	.
4C'/	.	4f'\	.	4a'\	.	4cc'\	.	4r	.
=159	=159	=159	=159	=159	=159	=159	=159	=159	=159
4r	.	4r	.	4r	.	4r	.	4ee'\	.
4C'/	.	4G'/	.	4B-'/	.	4e'/	.	4ee'\	.
4C'/	.	4G'/	.	4B-'/	.	4e'/	.	4r	.
=160	=160	=160	=160	=160	=160	=160	=160	=160	=160
4r	.	4A'/	p	4c'\	.	4f'/	p	4ff'\	p
4FF'/	p	4r	.	4r	.	4r	.	4r	.
4CC'/	.	4c'\	.	4g'\	.	4b-'/	.	4G'/ 4e'/	.
=161	=161	=161	=161	=161	=161	=161	=161	=161	=161
4FF'/	.	4c'\	.	4f'\	.	4a'/	.	4A'/ 4f'/	.
4r	.	4r	.	4r	.	4r	.	4r	.
4r	.	4r	.	4r	.	4r	.	4r	.
==:|!	==:|!	==:|!	==:|!	==:|!	==:|!	==:|!	==:|!	==:|!	==:|!
*-	*-	*-	*-	*-	*-	*-	*-	*-	*-
!!!ONB: Scanned with SharpEye into MusicXML by Don Anthony 2006///
!!!ONB: Converted to Humdrum by Craig Sapp 2006/07/24/
